X:1
T:Title
%%score ( 1 2 ) { 3 | ( 4 5 ) }
L:1/8
Q:1/4=85
M:6/8
K:G
V:1 treble nm="Grand Piano, Soprano"
V:2 treble 
V:3 bass nm="Choir Pad, As I Ought to Do, 1914"
V:4 bass 
V:5 bass 
V:1
 B,/C/DD D E2 | ^D =D2- D2- D/ z/ | G/A/BB B c2 | c B2- B2- B/ z/ | G/F/EE EGF | E D2- D B2 | %6
w: By~Rollin~Chauncey~Ward * * * * *||||||
 A/A/GF G B2 | A G2- G2- G/ z/ | z3 z e2 | z d2- d2- d/ z/ | [EG]/[FA]/[GB][GB] [GB] [Fc]2 | %11
w: |||||
 z B2- B2- B/ z/ | [GB]/[FA]/[EG][=FG] [FG]E-[Ec] | [Ge] d2- [G-d]/G/ G2 | %14
w: |||
 G/[GA]/[GB][GB] [Gc] [GB]2 | [DA] [DG]2- [DG]3- | [DG]3 z3 |] %17
w: |||
V:2
 x6 | x6 | x6 | x6 | x6 | x6 | x6 | x6 | B/c/d[Gd] [Gd]GG | [Ad] G2 F G2 | x6 | [FB] G2 F G2 | %12
 z3 z .G2 | z G2 z3 | x6 | x6 | x6 |] %17
V:3
 G,/G,/B,B, B, C2 | C B,2- B,2- B,/ z/ | B,/[K:treble]C/DD D E2 | ^D =D2- D2- D/ z/ | B,/D/CC CED | %5
 C B,2- B, D2 | C/C/[K:bass]B,A, B, D2 | C B,2- B,2- B,/ z/ | G,/A,/B,B, B,[K:treble] C2 | %9
 C B,2 C D2 | z2 E E^DD | B, B,2 A, G,2 | z2 B, B,[K:treble]CC | C B,2 B, B,2 | %14
 ^C/C/DD E[K:bass] D2 | C B,2- B,3- | B,3 z3 |] %17
V:4
 z G,2- G,3- | G,3 z3 | z G,2- G,3- | G,3 z3 | z E,2- E,/ z/ z z | z6 | z [D,,D,]2- [D,,D,]3- | %7
 [D,,D,] [G,,B,,D,]2- [G,,B,,D,]2- [G,,B,,D,]/ z/ | z2 G, G,C,E, | F, G,2 A, B,2 | z2 E, E,B,,B,, | %11
 ^D, E,2 .F,3 | z2 G, G,C,C, | E, G,2 G, E,2 | ^D,/D,/=D,D, D, D,2 | D, G,,2- G,,3- | G,,3 z3 |] %17
V:5
 z G,,2- G,,/ z/ C,2- | C, [G,,G,]2- [G,,G,]2- [G,,G,]/ z/ | z G,,2- G,,/ z/ C,2- | %3
 C, [G,,G,]2- [G,,G,]2- [G,,G,]/ z/ | z C,2- C,- [C,-E,]2 | %5
 [C,G,] [G,,G,]2- [G,,G,]2- [G,,G,]/ z/ | x6 | x6 | x6 | x6 | x6 | x6 | x6 | x6 | x6 | x6 | x6 |] %17

